cloud-question.svg

<svg fill="currentColor" viewBox="0 0 24 24"><path d="M21.86 12.5A4.31 4.31 0 0 0 19 11c0-1.95-.68-3.6-2.04-4.96S13.95 4 12 4c-1.58 0-3 .47-4.25 1.43s-2.08 2.19-2.5 3.72c-1.25.28-2.29.93-3.08 1.95S1 13.28 1 14.58c0 1.51.54 2.8 1.61 3.85C3.69 19.5 5 20 6.5 20h12c1.25 0 2.31-.44 3.19-1.31.87-.88 1.31-1.94 1.31-3.19q0-1.725-1.14-3M13 17h-2v-2h2zm1.8-5.18c-.3.39-.67.68-1.13.93-.26.16-.43.32-.52.51A1.7 1.7 0 0 0 13 14h-2c0-.55.11-.92.3-1.18.2-.26.55-.57 1.07-.91.26-.16.47-.35.63-.59.15-.23.23-.51.23-.82 0-.32-.09-.56-.27-.74-.18-.2-.46-.29-.76-.29-.27 0-.49.08-.7.23-.15.15-.25.38-.25.69H9.28c-.05-.75.22-1.39.78-1.8C10.6 8.2 11.31 8 12.2 8c.94 0 1.69.23 2.23.68s.81 1.07.81 1.82c0 .5-.15.91-.44 1.32"/></svg>

<svg  viewBox="0 0 24 24" fill="currentColor"><path  d="M21.86 12.5C21.1 11.63 20.15 11.13 19 11C19 9.05 18.32 7.4 16.96 6.04C15.6 4.68 13.95 4 12 4C10.42 4 9 4.47 7.75 5.43S5.67 7.62 5.25 9.15C4 9.43 2.96 10.08 2.17 11.1S1 13.28 1 14.58C1 16.09 1.54 17.38 2.61 18.43C3.69 19.5 5 20 6.5 20H18.5C19.75 20 20.81 19.56 21.69 18.69C22.56 17.81 23 16.75 23 15.5C23 14.35 22.62 13.35 21.86 12.5M13 17H11V15H13V17M14.8 11.82C14.5 12.21 14.13 12.5 13.67 12.75C13.41 12.91 13.24 13.07 13.15 13.26C13.06 13.45 13 13.69 13 14H11C11 13.45 11.11 13.08 11.3 12.82C11.5 12.56 11.85 12.25 12.37 11.91C12.63 11.75 12.84 11.56 13 11.32C13.15 11.09 13.23 10.81 13.23 10.5C13.23 10.18 13.14 9.94 12.96 9.76C12.78 9.56 12.5 9.47 12.2 9.47C11.93 9.47 11.71 9.55 11.5 9.7C11.35 9.85 11.25 10.08 11.25 10.39H9.28C9.23 9.64 9.5 9 10.06 8.59C10.6 8.2 11.31 8 12.2 8C13.14 8 13.89 8.23 14.43 8.68S15.24 9.75 15.24 10.5C15.24 11 15.09 11.41 14.8 11.82Z"/></svg>
